X: 31
T: No_38_Woman's_Game_Song_(b).krn
N: Derived from No_38_Woman's_Game_Song_(b).krn
%%abc-version 2.0
%%abcx-abcm2ps-target-version 5.9.1 (29 Sep 2008)
%%abc-creator hum2abc beta
%%abcx-conversion-date 2019/03/15 08:35:00
%%humdrum-veritas 3478578886
%%humdrum-veritas-data 1644751645
%%linebreak <none>
%%barnumbers 0
L: 1/8
M: 2/4
K: A clef=bass
[K:clef=bass][M:2/4]B,B, A,A, | 
CC B,A, | 
[M:5/8]CB,F,A,A, | 
[M:2/4]C(B,/A,/) A,A, | 
[M:5/8]CB,F,A, z | 
[M:2/4]C/C3/ (C/B,/)C | 
[M:5/8]CB,F,A,A, | 
[M:2/4]CC B,A, | 
[M:5/8]CB,F,A,A, | 
[M:2/4]C(B,/A,/) A,A, | 
[M:5/8]CB,F,A,A, | 
[M:2/4]CC CB, | 
[M:5/8]CB,F,A,A, | 
[M:2/4]C/B,3/ B,/A,/A, | 
[M:5/8]CB,F,A,A, | 
[M:2/4](3CCC CB, | 
[M:5/8]CB,F,A,A, | 
[M:2/4]CC B,A, | 
[M:5/8]CB,F,A, z | 
[M:2/4]C/C3/ C/B,/C | 
[M:5/8]CB,F,A,A, | 
[M:2/4]CB,/B,/ B,A, | 
[M:5/8]CB,F,A,A, | 
[M:2/4]CC/C/ CB, | 
[M:5/8]CB,F,A,A, | 
[M:2/4]CB,/B,/ B,A, | 
[M:5/8]CB,F,A, z | 
[M:2/4]C//C3//C C/B,/C | 
[M:5/8]CB,F,A,A, | 
[M:2/4]CB,/B,/ B,A, | 
[M:5/8]CB,F,A, z | 
[M:2/4]CC/C/ CB, | 
[M:5/8]CB,F,A,A, | 
[M:2/4]C//B,3//-B, B,/A,/A, | 
[M:5/8]CB,F,A, z |]  



